dist/common.blocks/page-footer/page-footer__be-Family.svg

<svg width="170" height="48" viewBox="0 0 170 48" version="1.1" xmlns="http://www.w3.org/2000/svg" xmlns:xlink="http://www.w3.org/1999/xlink">
<g id="Canvas" fill="none">
<g id="logo">
<g id="Combined Shape">
<path fill-rule="evenodd" clip-rule="evenodd" d="M 107.703 3.56714C 107.749 4.57495 107.313 5.54492 106.528 6.1792C 105.791 6.80859 104.853 7.15479 103.883 7.15601C 103.317 6.34497 103.015 5.37939 103.016 4.39014C 102.999 3.53613 103.172 2.68921 103.521 1.90967C 103.75 1.38818 104.049 0.900879 104.41 0.460938C 104.644 0.17334 104.994 0.00463867 105.365 0C 105.925 0 106.463 0.438965 106.968 1.37183C 107.382 2.03564 107.634 2.78784 107.703 3.56714ZM 60.9912 13.1707L 68.2239 13.3242C 68.6411 13.3242 68.8606 13.5767 68.9155 14.0706C 68.8884 14.3564 68.8218 14.637 68.7178 14.9048C 68.5862 15.2998 68.4653 15.7058 68.3557 16.134C 68.1143 17.001 67.6973 17.429 67.0166 17.429L 61.0129 17.1548L 60.4973 17.1548C 60.3108 17.1404 60.1238 17.1404 59.9375 17.1548C 58.761 21.031 58.0715 25.0386 57.885 29.085C 57.885 30.6436 56.3704 31.4119 53.3411 31.4119C 52.7466 31.45 52.2302 31.0066 52.1777 30.4131C 52.0447 29.5305 51.9858 28.6384 52.0022 27.7461C 52.1624 24.396 52.7336 21.0786 53.7034 17.8682C 52.4458 18.0562 51.1772 18.1626 49.9058 18.1863C 49.5657 18.1863 49.3899 18.0547 49.3899 17.7913C 49.4883 17.0068 49.9255 16.3047 50.5864 15.8706C 51.8069 15.0232 53.1836 14.4263 54.6362 14.1145C 55.4075 11.3015 56.3682 8.54395 57.512 5.86084C 55.1067 5.90112 52.801 6.82715 51.0364 8.46216C 50.6191 8.89014 50.2681 9.21948 50.0046 9.44995C 49.8262 9.65112 49.5803 9.78003 49.3132 9.81201C 49.1155 9.81201 48.929 9.64746 48.7424 9.3291C 48.5396 8.94043 48.4448 8.50464 48.468 8.06689C 48.4973 6.04004 49.8655 4.3938 52.573 3.12793C 55.7207 1.77783 59.1262 1.1333 62.5496 1.24023L 74.4031 1.43774C 75.1494 1.43774 75.5007 1.71216 75.5007 2.27197C 75.4487 2.57104 75.3408 2.85791 75.1824 3.11694C 74.9629 3.54346 74.7793 3.98779 74.6338 4.44507C 74.3147 5.36572 73.4089 5.94995 72.4385 5.86084L 71.1873 5.86084L 65.9302 5.86084L 62.8899 5.86084C 62.4292 8.33887 61.7947 10.7815 60.9912 13.1707ZM 36.9436 22.4338C 37.3936 21.918 37.7339 21.6655 37.9753 21.6655C 38.3374 21.6655 38.5242 22.0278 38.5242 22.7742C 38.499 23.6294 38.2971 24.4702 37.9314 25.2437C 37.4561 26.2419 36.7842 27.134 35.9558 27.8667C 33.6948 29.9741 30.5779 31.0715 26.6267 31.0715C 23.5205 31.0715 21.3254 29.9412 20.2278 27.6692C 20.1968 27.6133 20.1729 27.5471 20.1479 27.4783C 20.1289 27.425 20.1091 27.3704 20.0852 27.3179C 19.4404 27.8584 18.6216 28.147 17.7803 28.1301C 16.7173 28.1831 15.6648 27.8989 14.7729 27.3179C 14.311 28.4507 13.5146 29.4155 12.4902 30.0837C 11.0957 30.8967 9.4917 31.2786 7.88037 31.1814C 6.05347 31.23 4.25952 30.687 2.76587 29.6338C 0.999268 28.2834 0.0334473 26.1331 0.19751 23.9155C 0.274658 19.9031 1.20239 15.9526 2.91943 12.3254C 0.976807 11.4912 0 10.6682 0 9.87793C 0 9.42798 0.175537 9.23022 0.515869 9.2522C 1.06982 9.26709 1.61646 9.38232 2.12915 9.59253C 2.73804 9.81152 3.36157 9.98755 3.99512 10.1194C 6.14624 6.03638 8.60474 3.36938 11.3816 2.10718C 12.2483 1.69629 13.189 1.46484 14.1475 1.42676C 15.6555 1.32666 17.1455 1.80103 18.3181 2.75488C 19.2476 3.56274 19.7737 4.73926 19.7559 5.9707C 19.7559 8.24243 18.4937 9.98755 16.0461 11.1948C 13.4617 12.3342 10.6816 12.9641 7.8584 13.0498C 6.60815 16.1919 5.97827 19.5461 6.00366 22.9277C 6.00366 25.5291 6.58521 27.0437 7.82544 27.4387C 8.42578 27.7266 9.12402 27.7266 9.72437 27.4387C 10.1396 27.1606 10.4792 26.7834 10.7122 26.3411C 10.9768 25.7092 11.104 25.0283 11.0852 24.3435C 11.1187 23.5193 10.8491 22.7112 10.3279 22.0718C 9.823 21.457 9.3291 20.8862 8.84619 20.3596C 9.04346 19.5674 9.39404 18.8215 9.87793 18.1643C 10.7451 17.0339 11.4695 16.4631 12.073 16.4631C 12.626 16.4456 13.1589 16.6702 13.5327 17.0779C 13.9421 17.54 14.2588 18.0767 14.4658 18.6582C 14.7195 19.3579 14.9141 20.0774 15.0474 20.8096C 15.1902 21.5449 15.3547 22.2253 15.5413 22.8618C 15.6931 23.4199 15.926 23.9524 16.2329 24.4424C 16.4609 24.8333 16.8779 25.075 17.3303 25.0791C 17.7986 25.0713 18.2449 24.8777 18.5706 24.5413C 18.9407 24.1899 19.2717 23.7998 19.5583 23.3777L 19.7012 23.1582C 19.8352 21.9968 20.1042 20.855 20.5022 19.7559C 21.053 18.2356 21.8665 16.8237 22.906 15.5852C 23.8088 14.4709 24.929 13.5522 26.1985 12.8853C 27.4507 12.2393 28.8398 11.9043 30.2485 11.9084C 31.4453 11.8459 32.6213 12.238 33.5413 13.0059C 34.3154 13.7129 34.7407 14.7239 34.7046 15.7717C 34.7427 16.7676 34.4409 17.7471 33.8486 18.5486C 33.2524 19.3027 32.5046 19.9233 31.6533 20.3704C 30.6929 20.8811 29.6948 21.3176 28.668 21.6765C 27.5706 22.0645 26.4949 22.4924 25.4412 22.9607L 25.4412 23.9485C 25.4187 24.7898 25.8792 25.5701 26.6267 25.957C 27.437 26.3669 28.3308 26.5847 29.2388 26.5935C 31.46 26.5286 33.5818 25.6587 35.2095 24.146C 35.8274 23.6172 36.4067 23.0449 36.9436 22.4338ZM 129.753 14.0269C 130.24 13.6318 130.513 13.0295 130.488 12.4023C 130.45 11.9104 130.292 11.4355 130.027 11.0195C 129.72 10.4597 129.379 10.1853 129.006 10.1853C 128.773 10.1863 128.554 10.2957 128.414 10.4817C 128.186 10.7478 128.001 11.0479 127.865 11.3706C 127.653 11.8506 127.552 12.3718 127.568 12.8962C 127.573 13.5112 127.76 14.1113 128.106 14.6194C 128.708 14.6245 129.292 14.4143 129.753 14.0269ZM 118.865 10.3062C 119.588 9.74072 119.996 8.86328 119.963 7.94629C 119.91 7.23315 119.684 6.5437 119.304 5.93774C 118.854 5.13647 118.371 4.74146 117.822 4.74146C 117.485 4.73975 117.165 4.89355 116.955 5.15845C 116.632 5.55054 116.366 5.98657 116.165 6.45361C 115.865 7.14551 115.723 7.89526 115.748 8.64868C 115.749 9.53906 116.021 10.408 116.527 11.1401C 117.38 11.1426 118.207 10.8474 118.865 10.3062ZM 159.692 14.1865C 160.908 12.8799 162.679 10.9768 165.302 11.1511C 170.121 11.7219 169.835 17.2207 169.714 17.7913C 168.975 23.1313 165.985 26.7488 162.936 30.4368L 162.935 30.4385C 161.009 32.7683 159.061 35.1262 157.641 37.9644C 156.335 40.5762 156.23 42.7703 156.153 44.3726C 156.072 46.0562 156.023 47.0864 154.645 47.2607C 152.977 47.4583 154.063 40.3352 155.633 36.4827C 156.178 35.1445 157.763 32.8379 159.541 30.251C 162.88 25.3914 166.9 19.5422 165.983 17.2646C 164.885 14.5427 161.955 17.2537 160.989 18.5486C 160.023 19.8438 157.652 22.4561 154.009 17.2207C 153.108 15.9365 150.836 16.4084 151.023 18.6914C 151.351 22.4265 153.984 25.5557 157.608 26.5168C 158.871 26.8572 158.421 28.5254 157.608 29.7437C 155.029 29.4255 151.802 26.2314 151.539 25.6389L 151.505 25.6829C 151.177 26.1104 148.603 29.4617 146.83 30.2595C 145.841 30.7275 144.764 30.9819 143.669 31.0059C 139.927 31.0388 137.359 29.623 135.987 26.7803C 135.92 26.6375 135.861 26.491 135.811 26.3413C 135.319 27.0972 134.733 27.7869 134.066 28.3938C 132.512 30.0225 130.368 30.9563 128.117 30.9839C 126.021 30.9839 124.77 29.3926 124.353 26.2644C 123.849 27.0405 123.251 27.752 122.574 28.3828C 121.006 29.9915 118.872 30.9246 116.626 30.9839C 114.731 30.9839 113.783 29.2607 113.783 25.8145C 113.821 24.6042 113.964 23.3999 114.211 22.2146C 114.454 21.1099 114.601 19.9861 114.65 18.856C 114.65 17.989 114.145 17.5498 113.146 17.5498C 112.466 17.5498 111.698 18.2195 110.853 19.5474C 110.023 20.8677 109.421 22.3186 109.075 23.8389L 109.075 23.9158C 109.078 24.853 109.219 25.7849 109.492 26.6816C 109.706 27.3213 109.843 27.9846 109.898 28.6572C 109.898 29.5461 108.734 30.4351 106.539 31.3022C 106.25 31.4229 105.941 31.4897 105.628 31.4998C 104.99 31.5146 104.426 31.0869 104.267 30.468C 103.975 29.5613 103.841 28.6106 103.872 27.6584C 103.872 26.5608 103.905 25.4084 103.971 24.3657C 104.037 23.323 104.103 22.3572 104.168 21.4792C 104.186 21.2473 104.201 21.022 104.216 20.804C 104.256 20.197 104.293 19.645 104.366 19.1523C 104.465 18.4829 104.465 17.9341 104.465 17.5171C 104.465 16.6169 104.048 16.167 103.236 16.167C 102.424 16.167 101.49 17.1218 100.393 19.0315C 99.4993 20.3953 98.946 21.9536 98.7795 23.5754C 98.7463 24.6252 98.8608 25.6746 99.1199 26.6926C 99.3416 27.3308 99.4817 27.9946 99.5369 28.6682C 99.5369 29.5571 98.3735 30.446 96.1785 31.3132C 95.8892 31.4338 95.5806 31.5007 95.2673 31.5107C 94.6289 31.5256 94.0647 31.0979 93.9065 30.479C 93.6101 29.4529 93.4841 28.385 93.5332 27.3181L 93.5332 26.5388C 93.0715 27.1963 92.5337 27.7969 91.9309 28.3279C 91.0493 29.1082 90.0583 29.7551 88.9895 30.2485C 88.0024 30.7236 86.9238 30.9783 85.8284 30.9949C 84.4346 30.9949 83.5017 29.7766 83.0298 27.3181C 82.3572 28.4399 81.4375 29.3933 80.3408 30.106C 79.0129 30.8855 77.489 31.2664 75.9504 31.2034C 74.2781 31.2754 72.6514 30.647 71.4614 29.4692C 70.3499 28.3499 69.75 26.8206 69.8042 25.2437C 69.5837 21.1777 71.2378 17.2346 74.2932 14.5427C 75.3174 13.6016 76.5188 12.874 77.8274 12.4023C 78.9475 12.0598 80.1133 11.8896 81.2847 11.8975C 82.3091 11.8569 83.3274 12.072 84.248 12.5232C 84.6211 11.8098 85.0383 11.4255 85.5103 11.4255C 86.5146 11.458 87.4641 11.8931 88.1443 12.6328C 88.8447 13.1941 89.2913 14.0122 89.3845 14.9048C 88.9082 15.9766 88.3657 17.0176 87.7603 18.0217C 87.522 19.7085 87.4192 21.4114 87.4529 23.1145C 87.4529 25.3096 87.7273 26.4072 88.2761 26.4072C 88.9639 26.3999 90.6248 25.0315 93.2588 22.3022C 93.4131 22.1206 93.582 21.9517 93.7637 21.7974C 93.8125 20.9187 93.9077 20.043 94.0491 19.1743C 94.4443 16.7268 94.9929 14.6304 98.6699 11.9304C 104.495 8.02637 107.322 11.1616 108.33 12.28C 108.382 12.3376 108.428 12.3896 108.471 12.4353C 109.197 13.468 109.719 14.6306 110.008 15.8596L 110.008 16.2986C 111.374 14.4126 113.561 13.2944 115.89 13.2915C 117.092 13.1895 118.283 13.5864 119.183 14.3889C 119.909 15.106 120.306 16.0911 120.281 17.1108C 120.289 18.0925 120.212 19.073 120.05 20.0413C 119.885 20.9084 119.71 21.7207 119.512 22.4888L 118.986 24.5193C 118.846 24.968 118.765 25.4329 118.744 25.9023C 118.689 26.2659 118.923 26.6106 119.282 26.6926C 121.694 27.2913 123.154 24.8784 123.874 23.6882L 123.879 23.6792L 123.881 23.6768C 124.042 23.4106 124.165 23.207 124.254 23.1145C 124.407 20.4365 126.328 16.6719 127.546 16.6719C 128.128 16.6719 128.622 17.2427 129.05 18.2742C 129.397 19.0488 129.448 19.9233 129.193 20.7329C 129.125 21.0474 128.99 21.4944 128.833 22.0134C 128.098 24.4475 126.885 28.4653 129.906 27.823C 130.633 27.6018 131.316 27.2566 131.926 26.8022C 133.197 25.8123 134.094 24.3259 134.689 23.3398C 134.951 22.9045 135.155 22.5667 135.306 22.4121C 135.339 20.9824 135.464 19.5564 135.679 18.1426C 136.166 14.8364 137.193 11.6328 138.719 8.65967C 139.415 7.29565 140.278 6.02368 141.288 4.87329C 142.975 2.74146 145.528 1.47705 148.246 1.42676C 149.223 1.375 150.182 1.71021 150.913 2.35986C 151.597 3.07275 151.948 4.04126 151.879 5.02686C 151.859 6.26587 151.502 7.47607 150.847 8.52808C 150.08 9.81299 149.203 11.0286 148.224 12.1609C 147.16 13.4121 145.974 14.7183 144.69 16.0901C 143.35 17.5139 142.082 19.0049 140.893 20.5571L 140.893 22.1487C 140.793 23.3096 141.134 24.4653 141.848 25.3865C 142.395 26.0325 143.196 26.4089 144.043 26.4182C 146.469 26.3352 148.706 25.084 150.046 23.0596L 150.112 22.9827C 150.135 22.9331 150.025 22.6868 149.854 22.3L 149.852 22.2969L 149.851 22.2949L 149.848 22.2878L 149.847 22.2859C 148.94 20.2512 146.334 14.4048 151.748 12.6218C 153.869 11.9343 155.551 13.3818 156.762 14.4241L 156.765 14.4265C 157.37 14.9468 157.857 15.3657 158.223 15.3657C 158.594 15.3657 159.071 14.854 159.692 14.1865ZM 28.5364 15.4207C 29.3484 15.4207 29.7546 15.75 29.7546 16.4084C 29.686 17.2234 29.2336 17.957 28.5364 18.384C 28.1631 18.6475 27.7351 18.9219 27.2522 19.2073C 26.7583 19.5037 26.2424 19.8328 25.6936 20.1951C 26.2424 17.0122 27.1899 15.4207 28.5364 15.4207ZM 14.3669 5.30127C 13.3857 5.4834 12.4978 5.99902 11.8535 6.76099C 10.6614 7.95728 9.66187 9.33081 8.89014 10.833C 11.7656 10.3831 13.6755 9.44995 14.7729 8.18774C 15.1272 7.76343 15.3352 7.23608 15.3657 6.68408C 15.3438 5.76221 15.0034 5.30127 14.3669 5.30127ZM 143.911 8.14404C 145.009 6.2561 146.051 5.30127 146.973 5.30127C 147.39 5.30127 147.599 5.59766 147.599 6.19019C 147.597 6.79639 147.434 7.39087 147.127 7.91333C 146.742 8.56592 146.305 9.18628 145.821 9.76831L 143.867 12.1829C 143.121 13.105 142.298 14.2463 141.398 15.6182C 141.79 12.9985 142.641 10.4685 143.911 8.14404ZM 81.8555 24.3877C 82.2593 23.7251 82.5662 23.0081 82.7666 22.2583C 82.7412 19.7019 83.0249 17.1516 83.6116 14.6633C 81.4771 15.0852 79.5276 16.1633 78.0361 17.7476C 76.448 19.4006 75.5933 21.6243 75.6653 23.9158C 75.6653 25.9463 76.3677 26.9558 77.8604 26.9558C 79.5581 26.8833 81.0847 25.9019 81.8555 24.3877Z" fill="white"/>
</g>
</g>
</g>
</svg>

<svg width="170" height="48" xmlns="http://www.w3.org/2000/svg"><path fill-rule="evenodd" clip-rule="evenodd" d="M107.703 3.567a3.172 3.172 0 0 1-1.175 2.612 4.081 4.081 0 0 1-2.645.977 4.823 4.823 0 0 1-.867-2.766c-.017-.854.156-1.7.505-2.48a6.236 6.236 0 0 1 .889-1.45c.234-.287.584-.455.955-.46.56 0 1.098.439 1.603 1.372a4.98 4.98 0 0 1 .735 2.195zm-46.712 9.604l7.233.153c.417 0 .637.253.691.747a3.117 3.117 0 0 1-.197.834c-.132.395-.253.8-.362 1.229-.242.867-.659 1.295-1.34 1.295l-6.003-.274h-.516a3.632 3.632 0 0 0-.56 0 48.816 48.816 0 0 0-2.052 11.93c0 1.559-1.515 2.327-4.544 2.327a1.098 1.098 0 0 1-1.163-.999 15.933 15.933 0 0 1-.176-2.667c.16-3.35.732-6.667 1.701-9.878a29.392 29.392 0 0 1-3.797.318c-.34 0-.516-.131-.516-.395a2.7 2.7 0 0 1 1.196-1.92 11.236 11.236 0 0 1 4.05-1.757 64.623 64.623 0 0 1 2.876-8.253 9.768 9.768 0 0 0-6.476 2.601 18.42 18.42 0 0 1-1.031.988c-.179.201-.425.33-.692.362-.198 0-.384-.165-.57-.483a2.448 2.448 0 0 1-.275-1.262c.03-2.027 1.397-3.673 4.105-4.94A23.453 23.453 0 0 1 62.55 1.24l11.853.198c.746 0 1.098.274 1.098.834-.052.299-.16.586-.319.845-.22.426-.403.87-.548 1.328a2.118 2.118 0 0 1-2.195 1.416H62.89a53.757 53.757 0 0 1-1.899 7.31zm-24.047 9.263c.45-.516.79-.768 1.031-.768.362 0 .55.362.55 1.108a6.205 6.205 0 0 1-.594 2.47 8.219 8.219 0 0 1-1.975 2.623c-2.261 2.107-5.378 3.204-9.33 3.204-3.106 0-5.3-1.13-6.398-3.402-.031-.056-.055-.122-.08-.19a2.037 2.037 0 0 0-.063-.161 3.48 3.48 0 0 1-2.305.812 5.049 5.049 0 0 1-3.007-.812 6.013 6.013 0 0 1-2.283 2.766 8.175 8.175 0 0 1-4.61 1.097 8.484 8.484 0 0 1-5.114-1.547 6.586 6.586 0 0 1-2.568-5.718 28.363 28.363 0 0 1 2.721-11.59C.977 11.49 0 10.667 0 9.877c0-.45.176-.648.516-.626.554.015 1.1.13 1.613.34.609.22 1.233.396 1.866.527 2.151-4.083 4.61-6.75 7.387-8.012a7.116 7.116 0 0 1 2.766-.68 5.981 5.981 0 0 1 4.17 1.328 4.18 4.18 0 0 1 1.438 3.216c0 2.271-1.262 4.017-3.71 5.224a21.947 21.947 0 0 1-8.188 1.855 26.185 26.185 0 0 0-1.854 9.878c0 2.601.581 4.116 1.821 4.51a2.19 2.19 0 0 0 1.9 0 3.01 3.01 0 0 0 .987-1.097 4.829 4.829 0 0 0 .373-1.998 3.379 3.379 0 0 0-.757-2.271 41.572 41.572 0 0 0-1.482-1.712 6.25 6.25 0 0 1 1.032-2.196c.867-1.13 1.591-1.7 2.195-1.7a1.899 1.899 0 0 1 1.46.614c.41.462.726.999.933 1.58.254.7.448 1.42.581 2.152.143.735.308 1.415.494 2.052a5.89 5.89 0 0 0 .692 1.58c.228.391.645.633 1.097.637a1.768 1.768 0 0 0 1.24-.538c.37-.351.702-.741.988-1.163l.143-.22c.134-1.161.403-2.303.801-3.402a13.798 13.798 0 0 1 2.404-4.17 10.555 10.555 0 0 1 3.293-2.7 8.778 8.778 0 0 1 4.05-.978 4.752 4.752 0 0 1 3.292 1.098 3.579 3.579 0 0 1 1.164 2.766 4.39 4.39 0 0 1-.856 2.777 6.871 6.871 0 0 1-2.196 1.821c-.96.511-1.958.948-2.985 1.306a44.31 44.31 0 0 0-3.227 1.285v.988a2.196 2.196 0 0 0 1.186 2.008 5.9 5.9 0 0 0 2.612.636 9.164 9.164 0 0 0 5.97-2.447 17.165 17.165 0 0 0 1.735-1.712zm92.809-8.407a1.99 1.99 0 0 0 .735-1.625 3.004 3.004 0 0 0-.461-1.382c-.307-.56-.648-.835-1.021-.835a.744.744 0 0 0-.592.297 3.389 3.389 0 0 0-.549.889 3.51 3.51 0 0 0-.297 1.525c.005.615.192 1.215.538 1.723a2.527 2.527 0 0 0 1.647-.592zm-10.888-3.72a2.865 2.865 0 0 0 1.098-2.36 4.393 4.393 0 0 0-.659-2.01c-.45-.8-.933-1.196-1.482-1.196a1.1 1.1 0 0 0-.867.417 5.385 5.385 0 0 0-.79 1.296 5.093 5.093 0 0 0-.417 2.195 4.39 4.39 0 0 0 .779 2.491 3.664 3.664 0 0 0 2.338-.834zm40.827 3.88c1.216-1.307 2.987-3.21 5.61-3.036 4.819.57 4.533 6.07 4.412 6.64-.739 5.34-3.729 8.958-6.778 12.646l-.001.002c-1.926 2.33-3.874 4.687-5.294 7.525-1.306 2.612-1.411 4.806-1.488 6.409-.081 1.683-.13 2.713-1.508 2.888-1.668.197-.582-6.926.988-10.778.545-1.338 2.13-3.645 3.908-6.232 3.339-4.86 7.359-10.709 6.442-12.986-1.098-2.722-4.028-.011-4.994 1.284-.966 1.295-3.337 3.907-6.98-1.328-.901-1.284-3.173-.813-2.986 1.47a8.901 8.901 0 0 0 6.585 7.826c1.263.34.813 2.008 0 3.227-2.579-.319-5.806-3.513-6.069-4.105l-.034.044c-.328.427-2.902 3.779-4.675 4.576a7.789 7.789 0 0 1-3.161.747c-3.742.033-6.31-1.383-7.682-4.226a4.068 4.068 0 0 1-.176-.439 10.569 10.569 0 0 1-1.745 2.053 8.364 8.364 0 0 1-5.949 2.59c-2.096 0-3.347-1.591-3.764-4.72a11.333 11.333 0 0 1-1.779 2.119 8.623 8.623 0 0 1-5.948 2.6c-1.895 0-2.843-1.722-2.843-5.169.038-1.21.181-2.414.428-3.6.243-1.104.39-2.228.439-3.358 0-.867-.505-1.306-1.504-1.306-.68 0-1.448.67-2.293 1.997a13.833 13.833 0 0 0-1.778 4.292v.077c.003.937.144 1.869.417 2.766.214.64.351 1.303.406 1.975 0 .89-1.164 1.778-3.359 2.645a2.58 2.58 0 0 1-.911.198 1.373 1.373 0 0 1-1.361-1.032 8.287 8.287 0 0 1-.395-2.81c0-1.097.033-2.25.099-3.292.066-1.043.132-2.009.197-2.887.018-.232.033-.457.048-.675a21.2 21.2 0 0 1 .15-1.652c.099-.67.099-1.218.099-1.635 0-.9-.417-1.35-1.229-1.35s-1.746.955-2.843 2.864a10.189 10.189 0 0 0-1.614 4.544c-.033 1.05.082 2.1.34 3.118.223.638.363 1.302.418 1.975 0 .89-1.163 1.778-3.359 2.645-.289.12-.597.188-.91.198a1.372 1.372 0 0 1-1.362-1.032 9.772 9.772 0 0 1-.373-3.16v-.78c-.462.657-1 1.258-1.602 1.789a12.072 12.072 0 0 1-2.941 1.92 7.553 7.553 0 0 1-3.162.747c-1.393 0-2.326-1.218-2.798-3.677a8.598 8.598 0 0 1-2.69 2.788 8.024 8.024 0 0 1-4.39 1.097 6.014 6.014 0 0 1-4.489-1.734 5.718 5.718 0 0 1-1.657-4.225 13.302 13.302 0 0 1 4.49-10.701 10.471 10.471 0 0 1 3.533-2.14 11.557 11.557 0 0 1 3.458-.505 6.177 6.177 0 0 1 2.963.625c.373-.713.79-1.098 1.262-1.098a3.743 3.743 0 0 1 2.634 1.208 3.36 3.36 0 0 1 1.24 2.272 28.275 28.275 0 0 1-1.624 3.117 31.895 31.895 0 0 0-.307 5.093c0 2.195.274 3.292.823 3.292.688-.007 2.349-1.375 4.983-4.105a4.4 4.4 0 0 1 .505-.505c.049-.878.144-1.754.285-2.623.395-2.447.944-4.544 4.62-7.244 5.826-3.904 8.653-.768 9.661.35.052.058.098.11.141.155a9.892 9.892 0 0 1 1.537 3.425v.439a7.274 7.274 0 0 1 5.882-3.008 4.39 4.39 0 0 1 3.293 1.098 3.698 3.698 0 0 1 1.098 2.722c.008.982-.069 1.962-.231 2.93-.165.867-.34 1.68-.538 2.448l-.526 2.03c-.14.449-.221.914-.242 1.383a.702.702 0 0 0 .538.79c2.412.6 3.872-1.814 4.592-3.004l.005-.009.002-.002c.161-.266.284-.47.373-.563.153-2.678 2.074-6.442 3.292-6.442.582 0 1.076.57 1.504 1.602.347.775.398 1.65.143 2.459-.068.314-.203.761-.36 1.28-.735 2.434-1.948 6.452 1.073 5.81a6.593 6.593 0 0 0 2.02-1.02c1.271-.99 2.168-2.477 2.763-3.463.262-.436.466-.773.617-.928.033-1.43.158-2.856.373-4.27a30.501 30.501 0 0 1 3.04-9.482 18.447 18.447 0 0 1 2.569-3.787 9.087 9.087 0 0 1 6.958-3.446 3.72 3.72 0 0 1 2.667.933 3.5 3.5 0 0 1 .966 2.667 6.833 6.833 0 0 1-1.032 3.501 25.67 25.67 0 0 1-2.623 3.633 112.152 112.152 0 0 1-3.534 3.93 57.84 57.84 0 0 0-3.797 4.466v1.592c-.1 1.16.241 2.316.955 3.238a2.918 2.918 0 0 0 2.195 1.031 7.507 7.507 0 0 0 6.003-3.358l.066-.077c.023-.05-.087-.296-.258-.683l-.002-.003-.001-.002-.003-.007-.001-.002c-.907-2.035-3.513-7.881 1.901-9.664 2.121-.688 3.803.76 5.014 1.802l.003.003c.605.52 1.092.939 1.458.939.371 0 .848-.512 1.469-1.18zM28.536 15.42c.812 0 1.219.329 1.219.987a2.57 2.57 0 0 1-1.219 1.976c-.373.264-.8.538-1.284.823-.494.297-1.01.626-1.558.988.548-3.183 1.496-4.774 2.842-4.774zM14.366 5.3a4.325 4.325 0 0 0-2.512 1.46 16.36 16.36 0 0 0-2.964 4.072c2.876-.45 4.785-1.383 5.883-2.645.354-.425.562-.952.593-1.504-.022-.922-.363-1.383-1-1.383zm129.545 2.843c1.098-1.888 2.14-2.843 3.062-2.843.417 0 .626.297.626.89a3.423 3.423 0 0 1-.472 1.722 14.134 14.134 0 0 1-1.306 1.855l-1.954 2.415c-.746.922-1.569 2.063-2.469 3.435a22.549 22.549 0 0 1 2.513-7.474zM81.856 24.388c.403-.663.71-1.38.91-2.13a31.722 31.722 0 0 1 .846-7.595 10.437 10.437 0 0 0-5.576 3.085 8.517 8.517 0 0 0-2.37 6.168c0 2.03.702 3.04 2.194 3.04a4.708 4.708 0 0 0 3.996-2.568z" fill="#fff"/></svg>
